X:3071
T: Astrids skänklåt
C: Påhl Olle
S: Utlärd av Kalle Almlöf
Z: Karin Arén
M: 4/4
O: Dalarna, Rättvik
L: 1/16
K: Gm
D2|:v(G^F)GA B2dc B2AB G3v(B | (3A)A^FDF (Ac)BA vG6 D2 |
v(G^F)GA (BA)Bd g2^fg a3v(g |1 f2)Tf2 =ed^ce d6 uD2 :|2f2)Tf2 (=ed)^ce ud8 |:
vg2^fg a2g2 ud2dc B2(3Bcd | ve2c2 (AF)Bc d6 vG,2 |
vg2ag d2v(c2 B2)AB d3v(B | (3A)A^F(DF) v(Ac)BA uG8:| 
(:musicend:)




Det finns en [[Kategori/dublett|dublett]]: [[musik/1804]].
(:music:)
